X:182
T:Two Chimneys* (j)
B:NFID.152b ("untitled jig")
182two_c
S:CC
L:1/8
M:6/8
R:jig
Q:320
K:Am
B|:c2B c2e|d3 d2B|c2B c2e|d2B G2B|
c2B c2e|d2d ^c2d|1 e2a a2b|a2g e2d:|\
[2 e2a a2^g|a3 b2a||
g2e e2d|^c2d e2^f|g2e e2d|^c2A A2B|
a2e e2d|^c2d e2^d|1 e2a a2^g|a3 b2a:|\
[2 e2a a2b|a2g e2d||

%%%

